img/icons/icon-chart-blue.svg

<?xml version="1.0" encoding="UTF-8"?>
<svg width="32px" height="32px" viewBox="0 0 32 32" version="1.1" xmlns="http://www.w3.org/2000/svg" xmlns:xlink="http://www.w3.org/1999/xlink">
    <!-- Generator: Sketch 59.1 (86144) - https://sketch.com -->
    <title>icon-chart-blue</title>
    <desc>Created with Sketch.</desc>
    <g id="Page-1" stroke="none" stroke-width="1" fill="none" fill-rule="evenodd">
        <g id="icon-chart-blue" fill="#0848B9" fill-rule="nonzero">
            <path d="M16,16 L16,0 C7.2,0 0,7.2 0,16 C0,24.8 7.2,32 16,32 C21.2,32 25.7,29.5 28.7,25.8 L16,16 Z M16,30 C8.3,30 2,23.7 2,16 C2,9 7.2,3.1 14,2.1 L14,16 C14,16.6 14.3,17.2 14.8,17.6 L25.8,26.1 C23.1,28.6 19.7,30 16,30 Z" id="Shape"></path>
            <path d="M20.8,2.90005 C26.2,4.80005 30,10 30,16 C30,17.4 29.8,18.9001 29.3,20.2001 L20.7001,13.6 L20.7001,2.90005 L20.8,2.90005 Z M18.8,0.300049 L18.8,14.6 L30.2001,23.4 C31.4001,21.2 32,18.7 32,16 C32,8.10005 26.3,1.60005 18.8,0.300049 Z" id="Shape"></path>
        </g>
    </g>
</svg>

<svg width="32" height="32" xmlns="http://www.w3.org/2000/svg"><g fill="#0848B9"><path d="M16 16V0C7.2 0 0 7.2 0 16s7.2 16 16 16c5.2 0 9.7-2.5 12.7-6.2L16 16zm0 14C8.3 30 2 23.7 2 16 2 9 7.2 3.1 14 2.1V16c0 .6.3 1.2.8 1.6l11 8.5C23.1 28.6 19.7 30 16 30z"/><path d="M20.8 2.9C26.2 4.8 30 10 30 16c0 1.4-.2 2.9-.7 4.2l-8.6-6.6V2.9h.1zm-2-2.6v14.3l11.4 8.8c1.2-2.2 1.8-4.7 1.8-7.4C32 8.1 26.3 1.6 18.8.3z"/></g></svg>
